src/3dmodelv2/images/icons/touch-right.svg

<svg width="80" height="80" viewBox="0 0 80 80" fill="none" xmlns="http://www.w3.org/2000/svg">
<path d="M39.7448 57.8947C49.6278 57.8947 57.6396 49.8829 57.6396 40C57.6396 30.117 49.6278 22.1052 39.7448 22.1052C29.8618 22.1052 21.8501 30.117 21.8501 40C21.8501 49.8829 29.8618 57.8947 39.7448 57.8947Z" fill="#5B5B5B"/>
<path d="M39.7448 80C17.8309 80 0 62.0415 0 40C0 17.9585 17.8309 0 39.7448 0C61.6587 0 79.4896 17.9585 79.4896 40C79.4896 62.0415 61.6268 80 39.7448 80ZM39.7448 15.0558C26.1244 15.0558 15.0558 26.252 15.0558 40C15.0558 53.748 26.1244 64.9442 39.7448 64.9442C53.3652 64.9442 64.4338 53.748 64.4338 40C64.4019 26.252 53.3333 15.0558 39.7448 15.0558Z" fill="#5B5B5B"/>
<path d="M15.8215 19.2663C16.7023 19.2663 17.4164 18.5523 17.4164 17.6714C17.4164 16.7906 16.7023 16.0765 15.8215 16.0765C14.9406 16.0765 14.2266 16.7906 14.2266 17.6714C14.2266 18.5523 14.9406 19.2663 15.8215 19.2663Z" fill="white"/>
<path d="M63.6681 19.2663C64.549 19.2663 65.263 18.5523 65.263 17.6714C65.263 16.7906 64.549 16.0765 63.6681 16.0765C62.7873 16.0765 62.0732 16.7906 62.0732 17.6714C62.0732 18.5523 62.7873 19.2663 63.6681 19.2663Z" fill="white"/>
<path d="M15.8215 63.9234C16.7023 63.9234 17.4164 63.2094 17.4164 62.3285C17.4164 61.4477 16.7023 60.7336 15.8215 60.7336C14.9406 60.7336 14.2266 61.4477 14.2266 62.3285C14.2266 63.2094 14.9406 63.9234 15.8215 63.9234Z" fill="white"/>
<path d="M63.6681 63.9234C64.549 63.9234 65.263 63.2094 65.263 62.3285C65.263 61.4477 64.549 60.7336 63.6681 60.7336C62.7873 60.7336 62.0732 61.4477 62.0732 62.3285C62.0732 63.2094 62.7873 63.9234 63.6681 63.9234Z" fill="white"/>
<path d="M41.5948 70.3669L39.7447 72.2489L37.8627 70.3669H35.7256L39.7447 74.386L43.732 70.3669H41.5948Z" fill="white"/>
<path d="M37.8627 9.63321L39.7447 7.75124L41.5948 9.63321H43.732L39.7447 5.61407L35.7256 9.63321H37.8627Z" fill="white"/>
<path d="M9.34613 41.8501L7.49605 40L9.34613 38.1499V36.0128L5.35889 40L9.34613 43.9872V41.8501Z" fill="white"/>
<path d="M70.1116 38.1499L71.9617 40L70.1116 41.8501V43.9872L74.0988 40L70.1116 36.0128V38.1499Z" fill="white"/>
</svg>

<?xml version="1.0" encoding="utf-8"?>
<!-- Generator: Adobe Illustrator 25.0.0, SVG Export Plug-In . SVG Version: 6.00 Build 0)  -->
<svg version="1.1" id="Layer_1" xmlns="http://www.w3.org/2000/svg" xmlns:xlink="http://www.w3.org/1999/xlink" x="0px" y="0px"
	 viewBox="0 0 80 80" style="enable-background:new 0 0 80 80;" xml:space="preserve">
<style type="text/css">
	.st0{fill:#5B5B5B;}
	.st1{fill:#FFFFFF;}
</style>
<path class="st0" d="M39.7,80C17.8,80,0,62,0,40S17.8,0,39.7,0s39.7,18,39.7,40S61.6,80,39.7,80z M39.7,15.1
	c-13.6,0-24.7,11.2-24.7,24.9s11.1,24.9,24.7,24.9S64.4,53.7,64.4,40C64.4,26.3,53.3,15.1,39.7,15.1z"/>
<path class="st1" d="M15.8,19.3c0.9,0,1.6-0.7,1.6-1.6c0-0.9-0.7-1.6-1.6-1.6c-0.9,0-1.6,0.7-1.6,1.6C14.2,18.6,14.9,19.3,15.8,19.3
	z"/>
<path class="st1" d="M63.7,19.3c0.9,0,1.6-0.7,1.6-1.6c0-0.9-0.7-1.6-1.6-1.6c-0.9,0-1.6,0.7-1.6,1.6C62.1,18.6,62.8,19.3,63.7,19.3
	z"/>
<path class="st1" d="M15.8,63.9c0.9,0,1.6-0.7,1.6-1.6c0-0.9-0.7-1.6-1.6-1.6c-0.9,0-1.6,0.7-1.6,1.6C14.2,63.2,14.9,63.9,15.8,63.9
	z"/>
<path class="st1" d="M63.7,63.9c0.9,0,1.6-0.7,1.6-1.6c0-0.9-0.7-1.6-1.6-1.6c-0.9,0-1.6,0.7-1.6,1.6C62.1,63.2,62.8,63.9,63.7,63.9
	z"/>
<path class="st1" d="M41.6,70.4l-1.9,1.9l-1.9-1.9h-2.1l4,4l4-4H41.6z"/>
<path class="st1" d="M37.9,9.6l1.9-1.9l1.9,1.9h2.1l-4-4l-4,4H37.9z"/>
<path class="st1" d="M9.3,41.9L7.5,40l1.9-1.9V36l-4,4l4,4V41.9z"/>
<path class="st1" d="M70.1,38.1L72,40l-1.9,1.9V44l4-4l-4-4V38.1z"/>
</svg>
